X: 3066
T: St CATHERINE'S
C: A. M. Volti
Q:"Reel."
R: Reel.
%R:reel
B: James Kerr "Merry Melodies" v.3 p.9 #66
Z: 2016 John Chambers <jc:trillian.mit.edu>
M: C
L: 1/8
K: G
uD |\
G2ge d2BG | c2AG (GF)ED |\
G2ge d2BG | EGFd BGG ::\
d |\
g2Be dBG2 | EFGA GFED |\
g2Be dBG2 | EGFd BGG :|

%%sep 1 1 500
%%sep 1 1 500

